lib/flags/km-comoros.svg

<svg xmlns="http://www.w3.org/2000/svg" fill="none" aria-hidden="true" viewBox="0 0 42 30"><g id="Country=KM - Comoros, Size=sm (36x24)" filter="url(#filter0_dd_91_27054)"><g clip-path="url(#clip0_91_27054)"><g id="flag"><mask id="mask0_91_27054" width="36" height="24" x="3" y="2" maskUnits="userSpaceOnUse" style="mask-type:alpha"><rect id="mask" width="36" height="24" x="3" y="2" fill="white"/></mask><g mask="url(#mask0_91_27054)"><g id="contents"><path id="background" fill="#5196ED" fill-rule="evenodd" d="M3 2V26H39V2H3Z" clip-rule="evenodd"/><mask id="mask1_91_27054" width="36" height="24" x="3" y="2" maskUnits="userSpaceOnUse" style="mask-type:alpha"><path id="background_2" fill="white" fill-rule="evenodd" d="M3 2V26H39V2H3Z" clip-rule="evenodd"/></mask><g mask="url(#mask1_91_27054)"><path id="3" fill="#AF0100" fill-rule="evenodd" d="M3 14V20H39V14H3Z" clip-rule="evenodd"/><path id="2" fill="#F7FCFF" fill-rule="evenodd" d="M3 8V14H39V8H3Z" clip-rule="evenodd"/><path id="1" fill="#FECA00" fill-rule="evenodd" d="M3 2V8H39V2H3Z" clip-rule="evenodd"/><path id="triangle" fill="#5EAA22" fill-rule="evenodd" d="M3 2L24.375 14L3 26V2Z" clip-rule="evenodd"/><path id="Combined Shape" fill="#F7FCFF" fill-rule="evenodd" d="M11.2175 18.5014C11.2175 18.5014 7.18624 17.2783 7.32882 13.4495C7.4714 9.62066 11.5762 8.87041 11.5762 8.87041C10.1386 7.94763 4.99475 9.02898 4.83013 13.4495C4.66551 17.8699 9.68471 18.852 11.2175 18.5014ZM11.3386 11.8093L11.4649 11.1547L10.9299 10.6912L11.6692 10.5957L11.9999 10.0002L12.3305 10.5957L13.0698 10.6912L12.5348 11.1547L12.6611 11.8093L11.9999 11.5002L11.3386 11.8093ZM11.4649 13.1547L11.3386 13.8093L11.9999 13.5002L12.6611 13.8093L12.5348 13.1547L13.0698 12.6912L12.3305 12.5957L11.9999 12.0002L11.6692 12.5957L10.9299 12.6912L11.4649 13.1547ZM11.3386 15.8093L11.4649 15.1547L10.9299 14.6912L11.6692 14.5957L11.9999 14.0002L12.3305 14.5957L13.0698 14.6912L12.5348 15.1547L12.6611 15.8093L11.9999 15.5002L11.3386 15.8093ZM11.3386 17.8093L11.4649 17.1547L10.9299 16.6912L11.6692 16.5957L11.9999 16.0002L12.3305 16.5957L13.0698 16.6912L12.5348 17.1547L12.6611 17.8093L11.9999 17.5002L11.3386 17.8093Z" clip-rule="evenodd"/></g></g></g></g></g></g><defs><filter id="filter0_dd_91_27054" width="42" height="30" x="0" y="0" color-interpolation-filters="sRGB" filterUnits="userSpaceOnUse"><feFlood flood-opacity="0" result="BackgroundImageFix"/><feColorMatrix in="SourceAlpha" result="hardAlpha" values="0 0 0 0 0 0 0 0 0 0 0 0 0 0 0 0 0 0 127 0"/><feOffset dy="1"/><feGaussianBlur stdDeviation="1"/><feColorMatrix values="0 0 0 0 0.0627451 0 0 0 0 0.0941176 0 0 0 0 0.156863 0 0 0 0.06 0"/><feBlend in2="BackgroundImageFix" result="effect1_dropShadow_91_27054"/><feColorMatrix in="SourceAlpha" result="hardAlpha" values="0 0 0 0 0 0 0 0 0 0 0 0 0 0 0 0 0 0 127 0"/><feOffset dy="1"/><feGaussianBlur stdDeviation="1.5"/><feColorMatrix values="0 0 0 0 0.0627451 0 0 0 0 0.0941176 0 0 0 0 0.156863 0 0 0 0.1 0"/><feBlend in2="effect1_dropShadow_91_27054" result="effect2_dropShadow_91_27054"/><feBlend in="SourceGraphic" in2="effect2_dropShadow_91_27054" result="shape"/></filter><clipPath id="clip0_91_27054"><rect width="36" height="24" x="3" y="2" fill="white" rx="2"/></clipPath></defs></svg>

<svg xmlns="http://www.w3.org/2000/svg" fill="none" aria-hidden="true" viewBox="0 0 42 30"><g filter="url(#a)"><g clip-path="url(#b)"><mask id="c" width="36" height="24" x="3" y="2" maskUnits="userSpaceOnUse" style="mask-type:alpha"><path fill="#fff" d="M3 2h36v24H3z"/></mask><g mask="url(#c)"><path fill="#5196ED" fill-rule="evenodd" d="M3 2v24h36V2H3Z" clip-rule="evenodd"/><mask id="d" width="36" height="24" x="3" y="2" maskUnits="userSpaceOnUse" style="mask-type:alpha"><path fill="#fff" fill-rule="evenodd" d="M3 2v24h36V2H3Z" clip-rule="evenodd"/></mask><g fill-rule="evenodd" clip-rule="evenodd" mask="url(#d)"><path fill="#AF0100" d="M3 14v6h36v-6H3Z"/><path fill="#F7FCFF" d="M3 8v6h36V8H3Z"/><path fill="#FECA00" d="M3 2v6h36V2H3Z"/><path fill="#5EAA22" d="m3 2 21.375 12L3 26V2Z"/><path fill="#F7FCFF" d="M11.217 18.501s-4.03-1.223-3.888-5.052c.142-3.828 4.247-4.579 4.247-4.579-1.437-.922-6.581.159-6.746 4.58-.164 4.42 4.855 5.402 6.387 5.051Zm.122-6.692.126-.654-.535-.464.74-.095L12 10l.33.596.74.095-.535.464.126.654L12 11.5l-.661.31Zm.126 1.346-.126.654.66-.309.662.31-.126-.655.535-.464-.74-.095L12 12l-.33.596-.74.095.535.464Zm-.126 2.654.126-.654-.535-.464.74-.095L12 14l.33.596.74.095-.535.464.126.654L12 15.5l-.661.31Zm0 2 .126-.654-.535-.464.74-.095L12 16l.33.596.74.095-.535.464.126.654L12 17.5l-.661.31Z"/></g></g></g></g><defs><clipPath id="b"><rect width="36" height="24" x="3" y="2" fill="#fff" rx="2"/></clipPath><filter id="a" width="42" height="30" x="0" y="0" color-interpolation-filters="sRGB" filterUnits="userSpaceOnUse"><feFlood flood-opacity="0" result="BackgroundImageFix"/><feColorMatrix in="SourceAlpha" result="hardAlpha" values="0 0 0 0 0 0 0 0 0 0 0 0 0 0 0 0 0 0 127 0"/><feOffset dy="1"/><feGaussianBlur stdDeviation="1"/><feColorMatrix values="0 0 0 0 0.0627451 0 0 0 0 0.0941176 0 0 0 0 0.156863 0 0 0 0.06 0"/><feBlend in2="BackgroundImageFix" result="effect1_dropShadow_91_27054"/><feColorMatrix in="SourceAlpha" result="hardAlpha" values="0 0 0 0 0 0 0 0 0 0 0 0 0 0 0 0 0 0 127 0"/><feOffset dy="1"/><feGaussianBlur stdDeviation="1.5"/><feColorMatrix values="0 0 0 0 0.0627451 0 0 0 0 0.0941176 0 0 0 0 0.156863 0 0 0 0.1 0"/><feBlend in2="effect1_dropShadow_91_27054" result="effect2_dropShadow_91_27054"/><feBlend in="SourceGraphic" in2="effect2_dropShadow_91_27054" result="shape"/></filter></defs></svg>
